icon-themes/breeze_svg/svx/res/dstv_cen.svg

<svg viewBox="0 0 16 16" xmlns="http://www.w3.org/2000/svg"><path d="m3 2v5h6v-5zm1 1h4v3h-4zm6 3v1h1v2h-1v1h4v-1h-1v-2h1v-1zm-7 3v5h6v-5zm1 1h4v3h-4z" fill="#4d4d4d"/></svg>

<svg xmlns="http://www.w3.org/2000/svg" viewBox="0 0 16 16">
 <path 
     style="fill:#4d4d4d" 
     d="M 3 2 L 3 7 L 9 7 L 9 2 L 3 2 z M 4 3 L 8 3 L 8 6 L 4 6 L 4 3 z M 10 6 L 10 7 L 11 7 L 11 9 L 10 9 L 10 10 L 14 10 L 14 9 L 13 9 L 13 7 L 14 7 L 14 6 L 10 6 z M 3 9 L 3 14 L 9 14 L 9 9 L 3 9 z M 4 10 L 8 10 L 8 13 L 4 13 L 4 10 z "
     />
</svg>
